static/img/kroki/485e3be277d23e961bae64e981de1fa0.svg

<?xml version="1.0" encoding="us-ascii" standalone="no"?><svg xmlns="http://www.w3.org/2000/svg" xmlns:xlink="http://www.w3.org/1999/xlink" contentStyleType="text/css" height="352px" preserveAspectRatio="none" style="width:605px;height:352px;" version="1.1" viewBox="0 0 605 352" width="605px" zoomAndPan="magnify"><defs/><g><!--class digitalocean_droplet--><g id="elem_digitalocean_droplet"><rect codeLine="23" fill="#3D176E" height="39.7891" id="digitalocean_droplet" rx="2.5" ry="2.5" style="stroke:#000D19;stroke-width:0.5;" width="211" x="233.65" y="206.58"/><ellipse cx="248.65" cy="226.4745" fill="#ADD1B2" rx="11" ry="11" style="stroke:#181818;stroke-width:1.0;"/><path d="M251.6188,232.1152 Q251.0406,232.412 250.4,232.5527 Q249.7594,232.7089 249.0563,232.7089 Q246.5563,232.7089 245.2281,231.0683 Q243.9156,229.412 243.9156,226.287 Q243.9156,223.162 245.2281,221.5058 Q246.5563,219.8495 249.0563,219.8495 Q249.7594,219.8495 250.4,220.0058 Q251.0563,220.162 251.6188,220.4589 L251.6188,223.1777 Q250.9938,222.5995 250.4,222.3339 Q249.8063,222.0527 249.1813,222.0527 Q247.8375,222.0527 247.15,223.1308 Q246.4625,224.1933 246.4625,226.287 Q246.4625,228.3808 247.15,229.4589 Q247.8375,230.5214 249.1813,230.5214 Q249.8063,230.5214 250.4,230.2558 Q250.9938,229.9745 251.6188,229.3964 L251.6188,232.1152 Z " fill="#000000"/><text fill="#D9B8FF" font-family="Helvetica" font-size="17" lengthAdjust="spacing" textLength="169" x="267.65" y="232.3598">digitalocean_droplet</text></g><!--class digitalocean_floating_ip--><g id="elem_digitalocean_floating_ip"><rect codeLine="26" fill="#3D176E" height="39.7891" id="digitalocean_floating_ip" rx="2.5" ry="2.5" style="stroke:#000D19;stroke-width:0.5;" width="240" x="139.15" y="306.37"/><ellipse cx="154.15" cy="326.2645" fill="#ADD1B2" rx="11" ry="11" style="stroke:#181818;stroke-width:1.0;"/><path d="M157.1188,331.9052 Q156.5406,332.202 155.9,332.3427 Q155.2594,332.4989 154.5563,332.4989 Q152.0563,332.4989 150.7281,330.8583 Q149.4156,329.202 149.4156,326.077 Q149.4156,322.952 150.7281,321.2958 Q152.0563,319.6395 154.5563,319.6395 Q155.2594,319.6395 155.9,319.7958 Q156.5563,319.952 157.1188,320.2489 L157.1188,322.9677 Q156.4938,322.3895 155.9,322.1239 Q155.3063,321.8427 154.6813,321.8427 Q153.3375,321.8427 152.65,322.9208 Q151.9625,323.9833 151.9625,326.077 Q151.9625,328.1708 152.65,329.2489 Q153.3375,330.3114 154.6813,330.3114 Q155.3063,330.3114 155.9,330.0458 Q156.4938,329.7645 157.1188,329.1864 L157.1188,331.9052 Z " fill="#000000"/><text fill="#D9B8FF" font-family="Helvetica" font-size="17" lengthAdjust="spacing" textLength="198" x="173.15" y="332.1498">digitalocean_floating_ip</text></g><!--class digitalocean_project--><g id="elem_digitalocean_project"><rect codeLine="29" fill="#3D176E" height="39.7891" id="digitalocean_project" rx="2.5" ry="2.5" style="stroke:#000D19;stroke-width:0.5;" width="209" x="78.65" y="106.79"/><ellipse cx="93.65" cy="126.6845" fill="#ADD1B2" rx="11" ry="11" style="stroke:#181818;stroke-width:1.0;"/><path d="M96.6188,132.3252 Q96.0406,132.622 95.4,132.7627 Q94.7594,132.9189 94.0563,132.9189 Q91.5563,132.9189 90.2281,131.2783 Q88.9156,129.622 88.9156,126.497 Q88.9156,123.372 90.2281,121.7158 Q91.5563,120.0595 94.0563,120.0595 Q94.7594,120.0595 95.4,120.2158 Q96.0563,120.372 96.6188,120.6689 L96.6188,123.3877 Q95.9938,122.8095 95.4,122.5439 Q94.8063,122.2627 94.1813,122.2627 Q92.8375,122.2627 92.15,123.3408 Q91.4625,124.4033 91.4625,126.497 Q91.4625,128.5908 92.15,129.6689 Q92.8375,130.7314 94.1813,130.7314 Q94.8063,130.7314 95.4,130.4658 Q95.9938,130.1845 96.6188,129.6064 L96.6188,132.3252 Z " fill="#000000"/><text fill="#D9B8FF" font-family="Helvetica" font-size="17" lengthAdjust="spacing" textLength="167" x="112.65" y="132.5698">digitalocean_project</text></g><!--class digitalocean_region--><g id="elem_digitalocean_region"><rect codeLine="32" fill="#3D176E" height="39.7891" id="digitalocean_region" rx="2.5" ry="2.5" style="stroke:#000D19;stroke-width:0.5;" width="205" x="393.65" y="106.79"/><ellipse cx="408.65" cy="126.6845" fill="#ADD1B2" rx="11" ry="11" style="stroke:#181818;stroke-width:1.0;"/><path d="M411.6188,132.3252 Q411.0406,132.622 410.4,132.7627 Q409.7594,132.9189 409.0563,132.9189 Q406.5563,132.9189 405.2281,131.2783 Q403.9156,129.622 403.9156,126.497 Q403.9156,123.372 405.2281,121.7158 Q406.5563,120.0595 409.0563,120.0595 Q409.7594,120.0595 410.4,120.2158 Q411.0563,120.372 411.6188,120.6689 L411.6188,123.3877 Q410.9938,122.8095 410.4,122.5439 Q409.8063,122.2627 409.1813,122.2627 Q407.8375,122.2627 407.15,123.3408 Q406.4625,124.4033 406.4625,126.497 Q406.4625,128.5908 407.15,129.6689 Q407.8375,130.7314 409.1813,130.7314 Q409.8063,130.7314 410.4,130.4658 Q410.9938,130.1845 411.6188,129.6064 L411.6188,132.3252 Z " fill="#000000"/><text fill="#D9B8FF" font-family="Helvetica" font-size="17" lengthAdjust="spacing" textLength="163" x="427.65" y="132.5698">digitalocean_region</text></g><!--class digitalocean_team--><g id="elem_digitalocean_team"><rect codeLine="35" fill="#3D176E" height="39.7891" id="digitalocean_team" rx="2.5" ry="2.5" style="stroke:#000D19;stroke-width:0.5;" width="196" x="164.15" y="7"/><ellipse cx="179.15" cy="26.8945" fill="#ADD1B2" rx="11" ry="11" style="stroke:#181818;stroke-width:1.0;"/><path d="M182.1188,32.5352 Q181.5406,32.832 180.9,32.9727 Q180.2594,33.1289 179.5563,33.1289 Q177.0563,33.1289 175.7281,31.4883 Q174.4156,29.832 174.4156,26.707 Q174.4156,23.582 175.7281,21.9258 Q177.0563,20.2695 179.5563,20.2695 Q180.2594,20.2695 180.9,20.4258 Q181.5563,20.582 182.1188,20.8789 L182.1188,23.5977 Q181.4938,23.0195 180.9,22.7539 Q180.3063,22.4727 179.6813,22.4727 Q178.3375,22.4727 177.65,23.5508 Q176.9625,24.6133 176.9625,26.707 Q176.9625,28.8008 177.65,29.8789 Q178.3375,30.9414 179.6813,30.9414 Q180.3063,30.9414 180.9,30.6758 Q181.4938,30.3945 182.1188,29.8164 L182.1188,32.5352 Z " fill="#000000"/><text fill="#D9B8FF" font-family="Helvetica" font-size="17" lengthAdjust="spacing" textLength="154" x="198.15" y="32.7798">digitalocean_team</text></g><!--link digitalocean_droplet to digitalocean_floating_ip--><g id="link_digitalocean_droplet_digitalocean_floating_ip"><path codeLine="38" d="M323.35,246.8 C309.32,263.94 292.7388,284.2058 278.7188,301.3458 " fill="none" id="digitalocean_droplet-to-digitalocean_floating_ip" style="stroke:#1A83AF;stroke-width:2.0;"/><polygon fill="#1A83AF" points="274.92,305.99,283.7144,301.5562,278.0857,302.1198,277.5221,296.4911,274.92,305.99" style="stroke:#1A83AF;stroke-width:2.0;"/></g><!--link digitalocean_project to digitalocean_droplet--><g id="link_digitalocean_project_digitalocean_droplet"><path codeLine="39" d="M213.97,147.01 C241.32,164.15 275.9769,185.8722 303.3069,203.0122 " fill="none" id="digitalocean_project-to-digitalocean_droplet" style="stroke:#1A83AF;stroke-width:2.0;"/><polygon fill="#1A83AF" points="308.39,206.2,302.8906,198.0295,304.1541,203.5435,298.6402,204.8069,308.39,206.2" style="stroke:#1A83AF;stroke-width:2.0;"/></g><!--link digitalocean_project to digitalocean_floating_ip--><g id="link_digitalocean_project_digitalocean_floating_ip"><path codeLine="40" d="M187.11,147.04 C192.3,170.91 202.41,212.48 216.15,246.37 C224.76,267.62 234.5576,285.3444 243.9876,300.9544 " fill="none" id="digitalocean_project-to-digitalocean_floating_ip" style="stroke:#1A83AF;stroke-width:2.0;"/><polygon fill="#1A83AF" points="247.09,306.09,245.8601,296.3182,244.5046,301.8103,239.0126,300.4548,247.09,306.09" style="stroke:#1A83AF;stroke-width:2.0;"/></g><!--link digitalocean_region to digitalocean_droplet--><g id="link_digitalocean_region_digitalocean_droplet"><path codeLine="41" d="M465.13,147.01 C437.61,164.15 402.7025,185.8872 375.1925,203.0272 " fill="none" id="digitalocean_region-to-digitalocean_droplet" style="stroke:#1A83AF;stroke-width:2.0;"/><polygon fill="#1A83AF" points="370.1,206.2,379.8539,204.8357,374.3437,203.556,375.6235,198.0458,370.1,206.2" style="stroke:#1A83AF;stroke-width:2.0;"/></g><!--link digitalocean_region to digitalocean_floating_ip--><g id="link_digitalocean_region_digitalocean_floating_ip"><path codeLine="42" d="M495.71,147.05 C494.11,172.86 487.57,218.5 462.15,246.37 C435.39,275.7 402.147,292.4191 365.507,304.0891 " fill="none" id="digitalocean_region-to-digitalocean_floating_ip" style="stroke:#1A83AF;stroke-width:2.0;"/><polygon fill="#1A83AF" points="359.79,305.91,369.5795,306.99,364.5542,304.3926,367.1516,299.3673,359.79,305.91" style="stroke:#1A83AF;stroke-width:2.0;"/></g><!--link digitalocean_team to digitalocean_droplet--><g id="link_digitalocean_team_digitalocean_droplet"><path codeLine="43" d="M274.17,47.09 C283.57,62.71 296.45,85.58 305.15,106.79 C319.05,140.71 328.2162,176.4201 333.6562,200.2801 " fill="none" id="digitalocean_team-to-digitalocean_droplet" style="stroke:#1A83AF;stroke-width:2.0;"/><polygon fill="#1A83AF" points="334.99,206.13,336.8893,196.466,333.8785,201.2551,329.0894,198.2443,334.99,206.13" style="stroke:#1A83AF;stroke-width:2.0;"/></g><!--link digitalocean_team to digitalocean_floating_ip--><g id="link_digitalocean_team_digitalocean_floating_ip"><path codeLine="44" d="M163.78,42.22 C125.12,53.19 84.48,72.57 61.15,106.79 C6,187.68 138.3842,266.9752 211.5942,303.2652 " fill="none" id="digitalocean_team-to-digitalocean_floating_ip" style="stroke:#1A83AF;stroke-width:2.0;"/><polygon fill="#1A83AF" points="216.97,305.93,210.6828,298.349,212.4902,303.7094,207.1298,305.5167,216.97,305.93" style="stroke:#1A83AF;stroke-width:2.0;"/></g><!--link digitalocean_team to digitalocean_project--><g id="link_digitalocean_team_digitalocean_project"><path codeLine="45" d="M246.54,47.22 C232.69,64.36 216.3407,84.6129 202.5007,101.7429 " fill="none" id="digitalocean_team-to-digitalocean_project" style="stroke:#1A83AF;stroke-width:2.0;"/><polygon fill="#1A83AF" points="198.73,106.41,207.4975,101.9232,201.8723,102.5208,201.2747,96.8956,198.73,106.41" style="stroke:#1A83AF;stroke-width:2.0;"/></g><!--link digitalocean_team to digitalocean_region--><g id="link_digitalocean_team_digitalocean_region"><path codeLine="46" d="M308.38,47.22 C349.4,64.36 403.4838,86.9669 444.4838,104.0969 " fill="none" id="digitalocean_team-to-digitalocean_region" style="stroke:#1A83AF;stroke-width:2.0;"/><polygon fill="#1A83AF" points="450.02,106.41,443.2577,99.2496,445.4065,104.4824,440.1736,106.6312,450.02,106.41" style="stroke:#1A83AF;stroke-width:2.0;"/></g><!--SRC=[dP1FIyD04CNl-HGBFHSQYxQz2B5Gz5B4UXCfs-nikdQp6sQdbYf-T_idoffa6-9rtc_clJTh9O11Nj2UvP2l05taDieK77dE4aIxcrfjaVMav78ugeepQwWLcFCSs3teTo2LyYhnl5Rfne1pxCgJxdYwoT1kZJYV9-J67IGmv55JpPrBY52jjWHU635PZQMiajMZlQ68HpTGmomAm18P30OYdbIHLgkBlN-9XVe05ljFcrk2MioQnOcwcF98U25hHN_qOCP7BeGo6RlsPa_dJ6W0_ymNQoxixaXBhfrlumWGBEqBcDPQmMGivAWHVWZ1KNfy7HCgKyIrJO6RfK1RQ23s6KLVJRhKbjCXt58LGQP0-mPf-0P2fgm9oWI7-2UnCLd_fHSdus4oU-tV1hD5ZO72g-Nnhcj1nx9YHyFMhQ3VwMSTtLfs_kjLVgtJphbuz0q0]--></g></svg>

<svg xmlns="http://www.w3.org/2000/svg" width="605" height="352" viewBox="0 0 605 352"><rect width="211" height="39.789" x="233.65" y="206.58" fill="#3D176E" rx="2.5" ry="2.5" style="stroke:#000d19;stroke-width:.5"/><circle cx="248.65" cy="226.475" r="11" fill="#ADD1B2" style="stroke:#181818;stroke-width:1"/><path d="M251.619 232.115q-.578.297-1.219.438-.64.156-1.344.156-2.5 0-3.828-1.64-1.312-1.657-1.312-4.782t1.312-4.781q1.328-1.656 3.828-1.656.703 0 1.344.156.656.156 1.219.453v2.719q-.625-.578-1.219-.844-.594-.281-1.219-.281-1.344 0-2.031 1.078-.687 1.062-.687 3.156t.687 3.172q.688 1.062 2.031 1.062.625 0 1.219-.265.594-.281 1.219-.86z"/><text x="267.65" y="232.36" fill="#D9B8FF" font-family="Helvetica" font-size="17" textLength="169">digitalocean_droplet</text><rect width="240" height="39.789" x="139.15" y="306.37" fill="#3D176E" rx="2.5" ry="2.5" style="stroke:#000d19;stroke-width:.5"/><circle cx="154.15" cy="326.264" r="11" fill="#ADD1B2" style="stroke:#181818;stroke-width:1"/><path d="M157.119 331.905q-.578.297-1.219.438-.64.156-1.344.156-2.5 0-3.828-1.64-1.312-1.657-1.312-4.782t1.312-4.781q1.328-1.656 3.828-1.656.703 0 1.344.156.656.156 1.219.453v2.719q-.625-.579-1.219-.844-.594-.281-1.219-.281-1.344 0-2.031 1.078-.687 1.062-.687 3.156t.687 3.172q.688 1.062 2.031 1.062.625 0 1.219-.265.594-.281 1.219-.86z"/><text x="173.15" y="332.15" fill="#D9B8FF" font-family="Helvetica" font-size="17" textLength="198">digitalocean_floating_ip</text><rect width="209" height="39.789" x="78.65" y="106.79" fill="#3D176E" rx="2.5" ry="2.5" style="stroke:#000d19;stroke-width:.5"/><circle cx="93.65" cy="126.684" r="11" fill="#ADD1B2" style="stroke:#181818;stroke-width:1"/><path d="M96.619 132.325q-.578.297-1.219.438-.64.156-1.344.156-2.5 0-3.828-1.64-1.312-1.657-1.312-4.782t1.312-4.781q1.328-1.656 3.828-1.656.703 0 1.344.156.656.156 1.219.453v2.719q-.625-.579-1.219-.844-.594-.281-1.219-.281-1.343 0-2.031 1.078-.687 1.062-.687 3.156t.687 3.172q.688 1.062 2.031 1.062.625 0 1.219-.265.594-.281 1.219-.86z"/><text x="112.65" y="132.57" fill="#D9B8FF" font-family="Helvetica" font-size="17" textLength="167">digitalocean_project</text><rect width="205" height="39.789" x="393.65" y="106.79" fill="#3D176E" rx="2.5" ry="2.5" style="stroke:#000d19;stroke-width:.5"/><circle cx="408.65" cy="126.684" r="11" fill="#ADD1B2" style="stroke:#181818;stroke-width:1"/><path d="M411.619 132.325q-.578.297-1.219.438-.64.156-1.344.156-2.5 0-3.828-1.64-1.312-1.657-1.312-4.782t1.312-4.781q1.328-1.656 3.828-1.656.703 0 1.344.156.656.156 1.219.453v2.719q-.625-.579-1.219-.844-.594-.281-1.219-.281-1.344 0-2.031 1.078-.687 1.062-.687 3.156t.687 3.172q.688 1.062 2.031 1.062.625 0 1.219-.265.594-.281 1.219-.86z"/><text x="427.65" y="132.57" fill="#D9B8FF" font-family="Helvetica" font-size="17" textLength="163">digitalocean_region</text><rect width="196" height="39.789" x="164.15" y="7" fill="#3D176E" rx="2.5" ry="2.5" style="stroke:#000d19;stroke-width:.5"/><circle cx="179.15" cy="26.895" r="11" fill="#ADD1B2" style="stroke:#181818;stroke-width:1"/><path d="M182.119 32.535q-.578.297-1.219.438-.64.156-1.344.156-2.5 0-3.828-1.64-1.312-1.657-1.312-4.782t1.312-4.781q1.328-1.656 3.828-1.656.703 0 1.344.156.656.156 1.219.453v2.719q-.625-.578-1.219-.844-.594-.281-1.219-.281-1.344 0-2.031 1.078-.687 1.062-.687 3.156t.687 3.172q.688 1.062 2.031 1.062.625 0 1.219-.265.594-.281 1.219-.86z"/><text x="198.15" y="32.78" fill="#D9B8FF" font-family="Helvetica" font-size="17" textLength="154">digitalocean_team</text><path fill="none" d="M323.35 246.8c-14.03 17.14-30.611 37.406-44.631 54.546" style="stroke:#1a83af;stroke-width:2"/><path fill="#1A83AF" d="m274.92 305.99 8.794-4.434-5.628.564-.564-5.629z" style="stroke:#1a83af;stroke-width:2"/><path fill="none" d="M213.97 147.01c27.35 17.14 62.007 38.862 89.337 56.002" style="stroke:#1a83af;stroke-width:2"/><path fill="#1A83AF" d="m308.39 206.2-5.5-8.17 1.264 5.513-5.514 1.264z" style="stroke:#1a83af;stroke-width:2"/><path fill="none" d="M187.11 147.04c5.19 23.87 15.3 65.44 29.04 99.33 8.61 21.25 18.408 38.974 27.838 54.584" style="stroke:#1a83af;stroke-width:2"/><path fill="#1A83AF" d="m247.09 306.09-1.23-9.772-1.355 5.492-5.492-1.355z" style="stroke:#1a83af;stroke-width:2"/><path fill="none" d="M465.13 147.01c-27.52 17.14-62.428 38.877-89.937 56.017" style="stroke:#1a83af;stroke-width:2"/><path fill="#1A83AF" d="m370.1 206.2 9.754-1.364-5.51-1.28 1.28-5.51z" style="stroke:#1a83af;stroke-width:2"/><path fill="none" d="M495.71 147.05c-1.6 25.81-8.14 71.45-33.56 99.32-26.76 29.33-60.003 46.05-96.643 57.72" style="stroke:#1a83af;stroke-width:2"/><path fill="#1A83AF" d="m359.79 305.91 9.79 1.08-5.026-2.597 2.598-5.026z" style="stroke:#1a83af;stroke-width:2"/><path fill="none" d="M274.17 47.09c9.4 15.62 22.28 38.49 30.98 59.7 13.9 33.92 23.066 69.63 28.506 93.49" style="stroke:#1a83af;stroke-width:2"/><path fill="#1A83AF" d="m334.99 206.13 1.9-9.664-3.012 4.79-4.789-3.012z" style="stroke:#1a83af;stroke-width:2"/><path fill="none" d="M163.78 42.22c-38.66 10.97-79.3 30.35-102.63 64.57C6 187.68 138.384 266.975 211.594 303.265" style="stroke:#1a83af;stroke-width:2"/><path fill="#1A83AF" d="m216.97 305.93-6.287-7.581 1.807 5.36-5.36 1.808z" style="stroke:#1a83af;stroke-width:2"/><path fill="none" d="M246.54 47.22c-13.85 17.14-30.2 37.393-44.04 54.523" style="stroke:#1a83af;stroke-width:2"/><path fill="#1A83AF" d="m198.73 106.41 8.768-4.487-5.626.598-.597-5.625z" style="stroke:#1a83af;stroke-width:2"/><path fill="none" d="M308.38 47.22c41.02 17.14 95.104 39.747 136.104 56.877" style="stroke:#1a83af;stroke-width:2"/><path fill="#1A83AF" d="m450.02 106.41-6.762-7.16 2.149 5.232-5.233 2.15z" style="stroke:#1a83af;stroke-width:2"/></svg>
